flaticon/hand-gestures/pointing-4.svg

<svg xmlns="http://www.w3.org/2000/svg" width="32" height="32" viewBox="0 0 24 24">
    <path d="M13.714844 9.800781C14.28125 9.273438 14.28125 8.382812 13.714844 7.816406L10.71875 4.820312C11.769531 4.941406 12.945312 4.375 13.351562 3.445312 13.390625 3.324219 13.429688 3.199219 13.472656 3.039062 13.550781 2.511719 13.308594 2.269531 13.226562 2.1875 13.148438 2.027344 13.027344 2.027344 12.5 1.984375 11.8125 1.945312 10.394531 1.824219 9.261719 1.5 9.179688 1.5 7.964844 1.175781 6.832031 1.136719L6.382812.691406C5.859375.203125 5.167969 0 4.359375.0820312 3.671875.164062 2.941406.527344 2.457031 1.015625L.675781 2.796875C-.136719 3.605469-.214844 4.78125.433594 5.832031.632812 6.199219.675781 6.359375.675781 6.398438.714844 6.804688.878906 7.613281 1.566406 8.304688 3.386719 10.125 4.5625 11.257812 5.492188 11.257812 5.816406 11.257812 6.140625 11.097656 6.382812 10.8125 6.464844 10.691406 6.546875 10.570312 6.628906 10.449219 7.195312 10.8125 7.921875 10.734375 8.410156 10.246094 8.570312 10.125 8.652344 9.921875 8.734375 9.722656 9.015625 9.921875 9.339844 10.085938 9.707031 10.085938 10.109375 10.085938 10.433594 9.964844 10.71875 9.679688 10.878906 9.519531 10.960938 9.355469 11.042969 9.152344L11.691406 9.800781C12.257812 10.328125 13.1875 10.328125 13.714844 9.800781zM12.257812 9.234375L9.957031 6.933594C9.9375 6.886719 9.90625 6.84375 9.867188 6.804688L8.167969 5.105469C8.003906 4.941406 7.761719 4.941406 7.597656 5.105469 7.4375 5.265625 7.4375 5.507812 7.597656 5.671875L9.171875 7.242188C9.191406 7.289062 9.222656 7.332031 9.261719 7.371094L10.109375 8.261719C10.230469 8.382812 10.3125 8.546875 10.3125 8.707031 10.3125 8.910156 10.273438 9.03125 10.152344 9.152344 10.027344 9.273438 9.867188 9.316406 9.707031 9.316406 9.542969 9.316406 9.382812 9.234375 9.261719 9.113281L8.5 8.351562C8.476562 8.304688 8.449219 8.261719 8.410156 8.222656L6.992188 6.804688C6.832031 6.644531 6.585938 6.644531 6.425781 6.804688 6.261719 6.96875 6.261719 7.210938 6.425781 7.371094L7.84375 8.789062C7.847656 8.796875 7.855469 8.800781 7.863281 8.808594L7.84375 8.828125C7.882812 8.871094 8.003906 9.03125 8.003906 9.234375 8.046875 9.316406 8.046875 9.519531 7.882812 9.679688 7.597656 9.964844 7.195312 9.882812 6.992188 9.679688L5.292969 7.980469C5.128906 7.816406 4.886719 7.816406 4.722656 7.980469 4.5625 8.140625 4.5625 8.382812 4.722656 8.546875L5.859375 9.679688C6.140625 9.964844 5.898438 10.207031 5.859375 10.246094 5.414062 10.691406 4.886719 10.410156 2.171875 7.695312 1.851562 7.375 1.679688 7.039062 1.597656 6.757812 1.574219 6.46875 1.632812 6.03125 1.890625 5.589844 1.972656 5.386719 1.929688 5.144531 1.726562 5.023438 1.523438 4.941406 1.28125 4.984375 1.160156 5.183594 1.140625 5.222656 1.125 5.261719 1.105469 5.300781.679688 4.597656.734375 3.867188 1.242188 3.363281L3.0625 1.621094C3.792969.894531 5.089844.570312 5.816406 1.296875L6.34375 1.824219C6.425781 1.90625 6.507812 1.945312 6.628906 1.945312 7.679688 1.945312 9.015625 2.269531 9.015625 2.269531 10.230469 2.632812 11.691406 2.714844 12.378906 2.714844 12.5 2.753906 12.582031 2.753906 12.660156 2.753906 12.660156 2.753906 12.660156 2.796875 12.660156 2.835938 12.621094 2.957031 12.621094 3.039062 12.582031 3.078125 12.296875 3.648438 11.40625 4.132812 10.554688 3.929688L10.515625 3.929688 9.710938 3.824219C9.671875 3.8125 9.628906 3.808594 9.582031 3.808594 9.527344 3.792969 9.472656 3.796875 9.417969 3.808594L9.015625 3.808594C8.773438 3.808594 8.613281 3.96875 8.613281 4.214844 8.613281 4.457031 8.773438 4.617188 9.015625 4.617188L9.378906 4.617188 13.105469 8.382812C13.351562 8.628906 13.351562 8.992188 13.105469 9.234375 12.90625 9.476562 12.5 9.476562 12.257812 9.234375zM23.191406 17.457031L22.785156 17.050781C22.785156 17.035156 22.785156 17.019531 22.78125 17.003906 22.734375 15.921875 22.421875 14.699219 22.421875 14.621094 22.097656 13.488281 21.976562 12.109375 21.933594 11.421875 21.894531 10.9375 21.894531 10.8125 21.730469 10.691406 21.609375 10.570312 21.367188 10.289062 20.839844 10.410156 20.71875 10.410156 20.597656 10.449219 20.4375 10.53125 19.707031 10.855469 19.222656 11.746094 19.140625 12.917969 19.140625 13.042969 19.140625 13.121094 19.140625 13.242188L16.265625 10.367188C15.65625 9.800781 14.765625 9.761719 14.242188 10.289062 13.671875 10.855469 13.671875 11.785156 14.242188 12.351562L14.808594 12.960938C14.605469 13.042969 14.441406 13.164062 14.28125 13.324219 13.753906 13.890625 13.753906 14.742188 14.28125 15.308594 14.078125 15.347656 13.875 15.472656 13.714844 15.632812 13.429688 15.917969 13.308594 16.28125 13.308594 16.644531 13.351562 16.847656 13.390625 17.050781 13.472656 17.210938 13.308594 17.253906 13.148438 17.332031 13.027344 17.457031 12.457031 18.023438 12.417969 18.589844 12.863281 19.316406 13.269531 19.964844 14.078125 20.816406 15.457031 22.191406 16.183594 22.882812 17.074219 23.125 17.480469 23.164062 17.527344 23.179688 17.570312 23.191406 17.613281 23.195312 17.710938 23.226562 17.859375 23.289062 18.046875 23.40625 18.53125 23.730469 19.140625 23.933594 19.746094 23.933594 20.273438 23.933594 20.839844 23.773438 21.246094 23.285156L23.191406 21.34375C23.714844 20.816406 24 20.128906 24 19.398438 24 18.671875 23.714844 17.980469 23.191406 17.457031zM22.625 20.816406L20.679688 22.761719C20.195312 23.246094 19.414062 23.167969 18.792969 22.882812 18.953125 22.75 19.007812 22.535156 18.898438 22.355469 18.777344 22.152344 18.535156 22.070312 18.332031 22.191406 18.0625 22.339844 17.957031 22.398438 17.851562 22.410156 17.746094 22.375 17.648438 22.355469 17.5625 22.355469 17.320312 22.355469 16.628906 22.191406 16.0625 21.625 14.808594 20.371094 13.957031 19.480469 13.59375 18.871094 13.308594 18.425781 13.390625 18.265625 13.632812 18.023438 13.675781 18.023438 13.796875 17.980469 13.917969 17.980469 14.046875 17.980469 14.175781 18.035156 14.285156 18.117188 14.304688 18.15625 14.328125 18.191406 14.363281 18.226562L15.210938 19.074219C15.292969 19.15625 15.375 19.195312 15.496094 19.195312 15.617188 19.195312 15.699219 19.15625 15.78125 19.074219 15.941406 18.914062 15.941406 18.671875 15.78125 18.507812L15.019531 17.746094C14.996094 17.699219 14.96875 17.65625 14.929688 17.617188L14.320312 16.929688C14.199219 16.847656 14.121094 16.6875 14.121094 16.523438 14.121094 16.402344 14.121094 16.28125 14.28125 16.117188 14.566406 15.875 15.050781 15.996094 15.171875 16.117188 15.1875 16.132812 15.199219 16.144531 15.214844 16.15625 15.226562 16.171875 15.238281 16.1875 15.253906 16.199219L16.386719 17.332031C16.46875 17.414062 16.550781 17.457031 16.671875 17.457031 16.75 17.457031 16.871094 17.414062 16.953125 17.332031 17.117188 17.171875 17.117188 16.929688 16.953125 16.765625L15.820312 15.632812C15.804688 15.617188 15.789062 15.605469 15.773438 15.59375 15.761719 15.578125 15.75 15.566406 15.738281 15.550781L14.886719 14.703125C14.6875 14.5 14.605469 14.132812 14.886719 13.851562 15.171875 13.566406 15.578125 13.648438 15.78125 13.851562L16.296875 14.371094C16.316406 14.417969 16.347656 14.460938 16.386719 14.5L18.085938 16.199219C18.167969 16.28125 18.25 16.320312 18.371094 16.320312 18.492188 16.320312 18.574219 16.28125 18.65625 16.199219 18.816406 16.039062 18.816406 15.796875 18.65625 15.632812L16.996094 13.972656C16.976562 13.929688 16.949219 13.886719 16.914062 13.851562L14.808594 11.746094C14.566406 11.503906 14.523438 11.097656 14.808594 10.8125 15.050781 10.570312 15.414062 10.652344 15.65625 10.894531L19.445312 14.679688 19.707031 15.472656C19.746094 15.632812 19.910156 15.753906 20.070312 15.753906 20.113281 15.753906 20.195312 15.753906 20.234375 15.714844 20.4375 15.632812 20.558594 15.390625 20.476562 15.1875L20.195312 14.335938C20.1875 14.320312 20.179688 14.304688 20.171875 14.289062L19.992188 13.609375C19.949219 13.367188 19.949219 13.164062 19.949219 12.960938 20.03125 12.3125 20.273438 11.503906 20.800781 11.257812 20.882812 11.21875 20.960938 11.21875 21.042969 11.179688 21.085938 11.179688 21.125 11.179688 21.125 11.179688 21.125 11.257812 21.125 11.339844 21.125 11.460938 21.164062 12.152344 21.285156 13.609375 21.609375 14.824219 21.652344 14.863281 21.933594 16.199219 21.976562 17.253906 21.976562 17.738281 21.96875 18.4375 21.730469 18.871094 21.609375 19.074219 21.691406 19.316406 21.894531 19.441406 21.976562 19.480469 22.015625 19.480469 22.097656 19.480469 22.21875 19.480469 22.378906 19.398438 22.460938 19.238281 22.625 18.929688 22.707031 18.5625 22.746094 18.199219 23.03125 18.542969 23.191406 18.976562 23.191406 19.441406 23.191406 19.964844 22.988281 20.453125 22.625 20.816406zM22.625 20.816406"/>
</svg>

<svg xmlns="http://www.w3.org/2000/svg" width="32" height="32" viewBox="0 0 24 24">
    <path d="M13.715 9.8c.566-.527.566-1.417 0-1.984L10.719 4.82c1.05.121 2.226-.445 2.633-1.375a8.04 8.04 0 0 0 .12-.406c.079-.527-.163-.77-.245-.852-.079-.16-.2-.16-.727-.203-.688-.039-2.105-.16-3.238-.484-.082 0-1.297-.324-2.43-.363L6.382.69C5.86.203 5.169 0 4.36.082a3.38 3.38 0 0 0-1.902.934L.676 2.796c-.813.81-.89 1.985-.242 3.036.199.367.242.527.242.566.039.407.203 1.215.89 1.907 1.82 1.82 2.997 2.953 3.926 2.953.324 0 .649-.16.89-.445l.247-.364a1.413 1.413 0 0 0 1.781-.203c.16-.121.242-.324.324-.523.282.199.606.363.973.363.402 0 .727-.121 1.012-.406.16-.16.242-.325.324-.528l.648.649c.567.527 1.496.527 2.024 0zm-1.457-.566l-2.301-2.3a.405.405 0 0 0-.09-.13L8.168 5.106a.392.392 0 0 0-.57 0 .394.394 0 0 0 0 .567l1.574 1.57c.02.047.05.09.09.13l.847.89a.655.655 0 0 1 .204.445c0 .203-.04.324-.16.445a.62.62 0 0 1-.446.164.648.648 0 0 1-.445-.203L8.5 8.352a.48.48 0 0 0-.09-.13L6.992 6.806a.394.394 0 0 0-.566 0 .387.387 0 0 0 0 .566L7.844 8.79c.004.008.011.012.02.02l-.02.02c.039.042.16.202.16.405.043.082.043.286-.121.446a.631.631 0 0 1-.89 0l-1.7-1.7a.392.392 0 0 0-.57 0 .394.394 0 0 0 0 .567L5.859 9.68c.282.285.04.527 0 .566-.445.445-.972.164-3.687-2.55a2.214 2.214 0 0 1-.574-.938c-.024-.29.035-.727.293-1.168.082-.203.039-.445-.164-.567-.204-.082-.446-.039-.567.16-.02.04-.035.079-.055.118-.425-.703-.37-1.434.137-1.938l1.82-1.742C3.793.895 5.09.571 5.816 1.297l.528.527a.37.37 0 0 0 .285.121c1.05 0 2.387.325 2.387.325 1.214.363 2.675.445 3.363.445.121.039.203.039.281.039v.082c-.039.121-.039.203-.078.242-.285.57-1.176 1.055-2.027.852h-.04l-.804-.106a.449.449 0 0 0-.129-.015.333.333 0 0 0-.164 0h-.402c-.243 0-.403.16-.403.406 0 .242.16.402.403.402h.363l3.726 3.766a.583.583 0 0 1 0 .851c-.199.243-.605.243-.847 0zm0 0M23.191 17.457l-.406-.406c0-.016 0-.031-.004-.047-.047-1.082-.36-2.305-.36-2.383-.323-1.133-.444-2.512-.487-3.2-.04-.483-.04-.608-.204-.73-.12-.12-.363-.402-.89-.28-.121 0-.242.038-.402.12-.731.324-1.215 1.215-1.297 2.387v.324l-2.875-2.875c-.61-.566-1.5-.605-2.024-.078a1.457 1.457 0 0 0 0 2.063l.567.609a1.557 1.557 0 0 0-.528.363 1.442 1.442 0 0 0 0 1.985c-.203.039-.406.164-.566.324a1.403 1.403 0 0 0-.406 1.012c.043.203.082.406.164.566a.95.95 0 0 0-.446.246c-.57.566-.609 1.133-.164 1.86.407.648 1.215 1.5 2.594 2.874.727.692 1.617.934 2.023.973.047.016.09.027.133.031.098.032.246.094.434.211a3.118 3.118 0 0 0 1.7.528c.526 0 1.093-.16 1.5-.649l1.944-1.941a2.74 2.74 0 0 0 0-3.887zm-.566 3.36l-1.945 1.945c-.485.484-1.266.406-1.887.12.16-.132.215-.347.105-.527-.12-.203-.363-.285-.566-.164-.27.149-.375.207-.48.22a.935.935 0 0 0-.29-.056c-.242 0-.933-.164-1.5-.73-1.253-1.254-2.105-2.145-2.468-2.754-.285-.445-.203-.605.039-.848.043 0 .164-.043.285-.043.129 0 .258.055.367.137.02.04.043.074.078.11l.848.847a.37.37 0 0 0 .285.121.37.37 0 0 0 .285-.12.394.394 0 0 0 0-.567l-.761-.762a.48.48 0 0 0-.09-.129l-.61-.687a.498.498 0 0 1-.199-.407c0-.12 0-.242.16-.406.285-.242.77-.12.89 0 .017.016.028.028.044.04a.205.205 0 0 0 .039.042l1.133 1.133a.373.373 0 0 0 .285.125.44.44 0 0 0 .281-.125.387.387 0 0 0 0-.566l-1.133-1.133c-.015-.016-.03-.028-.047-.04-.011-.015-.023-.027-.035-.042l-.851-.848c-.2-.203-.282-.57 0-.851.285-.286.691-.204.894 0l.516.52c.02.046.05.089.09.128l1.699 1.7a.37.37 0 0 0 .285.12.37.37 0 0 0 .285-.12.394.394 0 0 0 0-.567l-1.66-1.66a.415.415 0 0 0-.082-.121l-2.105-2.106a.65.65 0 0 1 0-.934c.242-.242.605-.16.847.083l3.79 3.785.261.793c.04.16.203.28.363.28.043 0 .125 0 .164-.038.203-.082.325-.324.243-.527l-.282-.852-.023-.047-.18-.68c-.043-.242-.043-.445-.043-.648.082-.649.324-1.457.852-1.703.082-.04.16-.04.242-.078h.082v.28c.04.692.16 2.15.484 3.364.043.04.325 1.375.368 2.43 0 .484-.008 1.183-.247 1.617-.12.203-.039.445.165.57.082.04.12.04.203.04a.436.436 0 0 0 .363-.243c.164-.308.246-.675.285-1.039.285.344.445.778.445 1.242 0 .524-.203 1.012-.566 1.375zm0 0"/>
</svg>
